app/dist/common/images/shenzhen-sunmoon-microeletronics.svg

<svg height="18" viewBox="0 0 18 18" width="18" xmlns="http://www.w3.org/2000/svg"><path d="m0 0h18v18h-18z" fill="#f0f3fa"/><path d="m8.49 4a5.02 5.02 0 0 0 -4.49 4.5h4.49zm-4.49 5.5a5.02 5.02 0 0 0 4.49 4.5v-4.5z" fill="#da251e"/><path d="m9.49 14a5.01 5.01 0 0 0 3.84-2.49h-3.84zm4.28-3.5a5.03 5.03 0 0 0 0-3h-4.27v3h4.28zm-.44-4.01a5.01 5.01 0 0 0 -3.84-2.49v2.49z" fill="#02509a"/></svg>

<!-- by TradingView --><svg width="18" height="18" viewBox="0 0 18 18" xmlns="http://www.w3.org/2000/svg"><path fill="#F0F3FA" d="M0 0h18v18H0z"/><path d="M8.49 4A5.02 5.02 0 0 0 4 8.5h4.49V4ZM4 9.5A5.02 5.02 0 0 0 8.49 14V9.5H4Z" fill="#DA251E"/><path d="M9.49 14a5.01 5.01 0 0 0 3.84-2.49H9.49V14ZM13.77 10.5a5.03 5.03 0 0 0 0-3H9.5v3h4.28ZM13.33 6.49A5.01 5.01 0 0 0 9.49 4v2.49h3.84Z" fill="#02509A"/></svg>
